X:1
T:Come Home, Poor Sinner
T:Come Home, Poor Sinner
T:H. R. Jeffrey
T:H. R. Jeffrey, 1918
T:Public Domain Courtesy of the Cyber Hymnal™
C:H. R. Jeffrey
Z:Public Domain
Z:Courtesy of the Cyber Hymnal™
%%score ( 1 2 ) ( 3 4 )
L:1/8
Q:1/4=110
M:4/4
K:F
V:1 treble 
V:2 treble 
V:3 bass 
V:4 bass 
V:1
 [FA]4 [CG]2 [CF]2 | [B,D]2 [DF]4 z2 | [EG]4 [CF]2 [EG]2 | [FA]6 z2 | [FA]4 [CG]2 [CF]2 | %5
w: 1.~Come home, poor|sin- ner,|Why long- er|roam?|Thy Sav- ior’s|
w: 2.~He died to|save you|On Cal- va-|ry;|Be- hold what|
w: 3.~Oh, come to|Je- sus,|Do not de-|lay;|Come, and He’ll|
w: 4.~Oh, come to|Je- sus,|He’s wait- ing|still|With His sal-|
w: 5.~Oh, come to|Je- sus,|How can you|stay?|He’s plead- ing,|
 [B,D]2 [DF]4 z2 | ([EG]2 F2) !fermata![FA]2 [CG]2 | [CF]6 z2 ||"^Refrain" [Fc]4 [Fc]2 [FA]2 | %9
w: call- ing:|“Come * home, come|home.”||
w: suff- ering!|’Twas * all for|thee.||
w: save you,|Come * while you|may.|Je- sus is|
w: va- tion|Thy * soul to|fill.||
w: plead- ing,|Come, * come to-|day.||
 [FB]2 [Fd]4 z2 | [Fc]4 [Fc]2 [FA]2 | [FA]2 [EG]4 z2 | [Fc]4 [Fc]2 [FA]2 | [FB]2 [Fd]4 z2 | %14
w: |||||
w: |||||
w: plead- ing,|He’s in- ter-|ced- ing;|Yes, plead- ing,|plead- ing|
w: |||||
w: |||||
 [Fc]4 [FA]2 F2 | [EG]6 z2 | [FA]4 [CG]2 [CF]2 | [B,D]2 [DF]4 z2 | %18
w: ||||
w: ||||
w: For thee to|come;|Come home, poor|sin- ner,|
w: ||||
w: ||||
 ([EG]2 F2) !fermata![FA]2 [CG]2 | [CF]6 z2 |] %20
w: ||
w: ||
w: Come * home, come|home.|
w: ||
w: ||
V:2
 x8 | x8 | x8 | x8 | x8 | x8 | x2 F2 x4 | x8 || x8 | x8 | x8 | x8 | x8 | x8 | x6 F2 | x8 | x8 | %17
 x8 | x2 F2 x4 | x8 |] %20
V:3
 [F,C]4 [F,B,]2 [F,A,]2 | [B,,B,]2 [B,,B,]4 z2 | [C,B,]4 [C,A,]2 [C,C]2 | [F,C]6 z2 | %4
 [F,C]4 [F,B,]2 [F,A,]2 | [B,,B,]2 [B,,B,]4 z2 | (B,2 A,2) !fermata![C,C]2 [C,B,]2 | %7
 [F,,F,A,]6 z2 || [F,A,]4 [F,A,]2 [F,C]2 | [B,,D]2 [B,,B,]4 z2 | [F,A,]4 [F,A,]2 [F,C]2 | %11
 [C,C]2 [C,C]4 z2 | [F,A,]4 [F,A,]2 [F,C]2 | [B,,D]2 [B,,B,]4 z2 | [F,A,]4 [F,C]2 [D,=B,]2 | %15
 [C,C]6 z2 | [F,C]4 [F,B,]2 [F,A,]2 | [B,,B,]2 [B,,B,]4 z2 | (B,2 A,2) !fermata![C,C]2 [C,B,]2 | %19
 [F,,F,A,]6 z2 |] %20
V:4
 x8 | x8 | x8 | x8 | x8 | x8 | C,4 x4 | x8 || x8 | x8 | x8 | x8 | x8 | x8 | x8 | x8 | x8 | x8 | %18
 C,4 x4 | x8 |] %20

